public/static-checkout/assets/logo.svg

<?xml version="1.0" encoding="UTF-8"?>
<svg width="1168px" height="540px" viewBox="0 0 1168 540" version="1.1" xmlns="http://www.w3.org/2000/svg" xmlns:xlink="http://www.w3.org/1999/xlink">
    <g id="logo" stroke="none" stroke-width="1" fill="none" fill-rule="evenodd">
        <polygon id="Path" fill="#209FDA" fill-rule="nonzero" points="1166.81993 85.5 1166.81993 2.84217094e-14 953.759925 2.84217094e-14 953.759925 85.5 1002.17993 85.5 915.859925 191.98 829.459925 85.5 878.099925 85.5 878.099925 2.84217094e-14 718.919925 2.84217094e-14 718.919925 95.72 856.479925 265.26 718.919925 434.96 718.919925 452.02 784.499925 452.02 784.499925 539.64 878.099925 539.64 878.099925 452.02 823.919925 452.02 915.919925 338.52 915.939925 338.52 1008.03993 452.02 953.759925 452.02 953.759925 539.64 1166.81993 539.64 1166.81993 452.02 1126.85993 452.02 975.319925 265.26 1121.01993 85.5"></polygon>
        <polygon id="Path" fill="#026BA4" fill-rule="nonzero" points="664.019925 7.10542736e-15 664.019925 85.5 710.619925 85.5 718.919925 95.72 718.919925 7.10542736e-15"></polygon>
        <polygon id="Path" fill="#026BA4" fill-rule="nonzero" points="718.919925 452.02 718.919925 434.96 705.079925 452.02 664.019925 452.02 664.019925 539.64 784.499925 539.64 784.499925 452.02"></polygon>
        <path d="M321.999925,411.86 L397.659925,411.86 C388.805702,433.829527 376.258024,454.122269 360.559925,471.86 C344.364089,454.216816 331.320914,433.921419 321.999925,411.86" id="Path" fill="#78212E" fill-rule="nonzero"></path>
        <path d="M360.559925,189.28 C338.58337,213.190393 322.501981,241.908137 313.599925,273.14 C317.134915,280.039338 320.007771,287.25831 322.179925,294.7 L397.059925,294.7 C399.306706,287.354671 402.25356,280.242036 405.859925,273.46 C397.464721,242.277678 381.959326,213.464341 360.559925,189.28 Z M322.179925,294.7 C328.784599,317.438017 328.978396,341.558795 322.739925,364.4 L396.399925,364.4 C389.855554,341.597488 390.06397,317.386469 396.999925,294.7 L322.179925,294.7 Z M322.179925,294.7 L308.679925,294.7 C304.690779,317.752715 304.575868,341.309464 308.339925,364.4 L322.739925,364.4 C328.978396,341.558795 328.784599,317.438017 322.179925,294.7 L322.179925,294.7 Z" id="Shape" fill="#78212E" fill-rule="nonzero"></path>
        <path d="M710.619925,85.5 L664.019925,85.5 L664.019925,0.02 L576.019925,0.02 L576.019925,85.5 L632.859925,85.5 L632.859925,159.2 C598.417874,134.487772 557.04992,121.286425 514.659925,121.48 C456.044663,121.405246 400.107354,146.01621 360.559925,189.28 C381.937732,213.470272 397.422343,242.283149 405.799925,273.46 C426.944121,233.500977 468.451514,208.51034 513.659925,208.52 C581.059925,208.52 632.879925,263.16 632.879925,330.52 L632.879925,331.2 C632.539925,398.28 580.879925,452.56 513.659925,452.56 C468.477451,452.593197 426.976426,427.652566 405.799925,387.74 L405.799925,387.74 C401.869213,380.340239 398.718926,372.551658 396.399925,364.5 L308.399925,364.5 C309.686934,372.450225 311.443338,380.317312 313.659925,388.06 C315.970162,396.190434 318.775397,404.171995 322.059925,411.96 L397.659925,411.96 C388.805702,433.929527 376.258024,454.222269 360.559925,471.96 C400.107354,515.22379 456.044663,539.834754 514.659925,539.76 C571.465111,540.091874 625.745998,516.316729 664.019925,474.34 L664.019925,452.04 L705.059925,452.04 L718.899925,434.96 L718.899925,95.74 L710.619925,85.5 Z M632.879925,501.9 L632.879925,539.74 L664.019925,539.74 L664.019925,474.18 C654.623775,484.469293 644.18821,493.758755 632.879925,501.9 L632.879925,501.9 Z M313.599925,273.14 C311.569597,280.231983 309.927163,287.429316 308.679925,294.7 L322.179925,294.7 C320.007771,287.25831 317.134915,280.039338 313.599925,273.14 L313.599925,273.14 Z" id="Shape" fill="#8A8C8F" fill-rule="nonzero"></path>
        <path d="M410.399925,294.7 C409.199925,287.5 407.659925,280.4 405.799925,273.46 C402.19356,280.242036 399.246706,287.354671 396.999925,294.7 C390.06397,317.386469 389.855554,341.597488 396.399925,364.4 L410.719925,364.4 C414.264276,341.293291 414.156293,317.77319 410.399925,294.7 L410.399925,294.7 Z M209.059925,121.48 C107.422724,121.487508 20.5081632,194.571683 3.05992537,294.7 L91.3999254,294.7 C107.135726,243.467257 154.465065,208.503753 208.059925,208.52 C252.638644,208.335148 293.496156,233.351373 313.599925,273.14 C322.501981,241.908137 338.58337,213.190393 360.559925,189.28 C322.206855,145.880863 266.976617,121.163964 209.059925,121.48 L209.059925,121.48 Z M297.479925,411.86 C275.077969,437.877726 242.392659,452.761934 208.059925,452.58 C153.691226,452.598435 105.87164,416.63791 90.7999254,364.4 L308.339925,364.4 C304.575868,341.309464 304.690779,317.752715 308.679925,294.7 L3.05992537,294.7 C-0.902504563,317.755068 -1.01739385,341.307372 2.71992537,364.4 L2.71992537,364.4 C19.3292424,465.441984 106.661918,539.594765 209.059925,539.6 C266.986094,539.900862 322.217868,515.161403 360.559925,471.74 C344.364089,454.096816 331.320914,433.801419 321.999925,411.74 L297.479925,411.86 Z" id="Shape" fill="#B72768" fill-rule="nonzero"></path>
    </g>
</svg>

<svg xmlns="http://www.w3.org/2000/svg" viewBox="0 0 1168 540"><path fill="#209fda" d="M1166.8 85.5V0H953.76v85.5h48.44l-86.34 106.48-86.4-106.48h48.64V0H718.92v95.72l137.56 169.54-137.56 169.7v17.06h65.58v87.62h93.6v-87.62h-54.18l92.02-113.5 92.06 113.5h-54.24v87.62h213.04v-87.62h-39.9L975.32 265.26 1121 85.5z"/><path d="M664.02 0v85.5h46.6l8.3 10.22V0zm54.9 452.02v-17.06l-13.84 17.06h-41.06v87.62H784.5v-87.62z" fill="#026ba4"/><path d="M322 411.86h75.66a207.66 207.66 0 0 1-37.1 60 209.02 209.02 0 0 1-38.56-60m38.56-222.58a208.29 208.29 0 0 0-46.96 83.86 122.63 122.63 0 0 1 8.58 21.56h74.88a120 120 0 0 1 8.8-21.24 209.03 209.03 0 0 0-45.3-84.18zM322.18 294.7a128.5 128.5 0 0 1 .56 69.7h73.66a122.66 122.66 0 0 1 .6-69.7h-74.82zh-13.5a210.32 210.32 0 0 0-.34 69.7h14.4a128.5 128.5 0 0 0-.56-69.7z" fill="#78212e"/><path d="M710.62 85.5h-46.6V.02h-88V85.5h56.84v73.7a201.18 201.18 0 0 0-118.2-37.72c-58.615-.075-114.55 24.536-154.1 67.8a209.04 209.04 0 0 1 45.24 84.18c21.144-39.96 62.652-64.95 107.86-64.94 67.4 0 119.22 54.64 119.22 122v.68c-.34 67.08-52 121.36-119.22 121.36-45.182.033-86.683-24.907-107.86-64.82-3.93-7.4-7.08-15.188-9.4-23.24h-88a204.13 204.13 0 0 0 5.26 23.56 207.34 207.34 0 0 0 8.4 23.9h75.6a207.66 207.66 0 0 1-37.1 60 208.42 208.42 0 0 0 154.1 67.8c56.805.332 111.1-23.443 149.36-65.42v-22.3h41.04l13.84-17.08V95.74l-8.28-10.24zm-77.74 416.4v37.84h31.14v-65.56a202.02 202.02 0 0 1-31.14 27.72zM313.6 273.14a203.08 203.08 0 0 0-4.92 21.56h13.5a122.63 122.63 0 0 0-8.58-21.56z" fill="#8a8c8f"/><path d="M410.4 294.7c-1.2-7.2-2.74-14.3-4.6-21.24a120.01 120.01 0 0 0-8.8 21.24 122.66 122.66 0 0 0-.6 69.7h14.32c3.544-23.107 3.436-46.627-.32-69.7zM209.06 121.48c-101.64.008-188.55 73.092-206 173.22H91.4c15.736-51.233 63.065-86.196 116.66-86.18 44.58-.185 85.436 24.83 105.54 64.62a208.29 208.29 0 0 1 46.96-83.86 200.72 200.72 0 0 0-151.5-67.8zm88.42 290.38a117.18 117.18 0 0 1-89.42 40.72c-54.37.018-102.2-35.942-117.26-88.18h217.54a210.32 210.32 0 0 1 .34-69.7H3.06a211.76 211.76 0 0 0-.34 69.7c16.61 101.04 103.94 175.2 206.34 175.2a200.72 200.72 0 0 0 151.5-67.86 209.02 209.02 0 0 1-38.56-60l-24.52.12z" fill="#b72768"/></svg>
